X: 3879
T: Black Rose Of Beara, The
R: jig
M: 6/8
K: Dmajor
|:d>zA BAG|(3FGA F GFE|fed ecA|G2A GED|
Add cde|dzf gfe|fde dcA|G2A GED:|
|:f2d ecA|fed gfe|dcA G2G|dAB cde|
def wBcd|=cGE =cEG|FD=c BGd|cAed2z:|

